apps/editing-toolkit/editing-toolkit-plugin/wpcom-block-editor-nux/src/welcome-modal/images/transcription.svg

<svg width="360" height="277" viewBox="0 0 360 277" fill="none" xmlns="http://www.w3.org/2000/svg">
<path d="M0 0H360V277H0V0Z" fill="#3981D2"/>
<g filter="url(#filter0_d)">
<rect x="58" y="67" width="244" height="144" rx="2.40467" fill="white"/>
</g>
<path d="M161.281 86.3594H126.281V102.359H161.281V86.3594Z" fill="#E2E4E7"/>
<path d="M282.281 110.359H126.281V118.359H282.281V110.359Z" fill="#E2E4E7"/>
<path d="M202.281 110.359H126.281V118.359H202.281V110.359Z" fill="black"/>
<path d="M282.281 166.359H78.2808V174.359H282.281V166.359Z" fill="#E2E4E7"/>
<path d="M210.281 182.359H78.2808V190.359H210.281V182.359Z" fill="#E2E4E7"/>
<path d="M282.281 150.359H78.2808V158.359H282.281V150.359Z" fill="#E2E4E7"/>
<mask id="mask0" mask-type="alpha" maskUnits="userSpaceOnUse" x="77" y="85" width="34" height="35">
<path fill-rule="evenodd" clip-rule="evenodd" d="M77.6143 102.359C77.6143 93.159 85.0809 85.6924 94.2809 85.6924C103.481 85.6924 110.948 93.159 110.948 102.359C110.948 111.559 103.481 119.026 94.2809 119.026C85.0809 119.026 77.6143 111.559 77.6143 102.359ZM100.948 102.359L90.9476 94.859V109.859L100.948 102.359Z" fill="white"/>
</mask>
<g mask="url(#mask0)">
<rect x="74.2808" y="82.3594" width="40" height="40" fill="black"/>
</g>
<defs>
<filter id="filter0_d" x="30.1745" y="41.9571" width="299.651" height="199.651" filterUnits="userSpaceOnUse" color-interpolation-filters="sRGB">
<feFlood flood-opacity="0" result="BackgroundImageFix"/>
<feColorMatrix in="SourceAlpha" type="matrix" values="0 0 0 0 0 0 0 0 0 0 0 0 0 0 0 0 0 0 127 0"/>
<feOffset dy="2.78255"/>
<feGaussianBlur stdDeviation="13.9127"/>
<feColorMatrix type="matrix" values="0 0 0 0 0.0980392 0 0 0 0 0.117647 0 0 0 0 0.137255 0 0 0 0.1 0"/>
<feBlend mode="normal" in2="BackgroundImageFix" result="effect1_dropShadow"/>
<feBlend mode="normal" in="SourceGraphic" in2="effect1_dropShadow" result="shape"/>
</filter>
</defs>
</svg>

<svg width="360" height="277" fill="none" xmlns="http://www.w3.org/2000/svg"><path d="M0 0h360v277H0V0z" fill="#3981D2"/><g filter="url(#filter0_d)"><rect x="58" y="67" width="244" height="144" rx="2.405" fill="#fff"/></g><path d="M161.281 86.36h-35v15.999h35v-16zM282.281 110.359h-156v8h156v-8z" fill="#E2E4E7"/><path d="M202.281 110.359h-76v8h76v-8z" fill="#101517"/><path d="M282.281 166.359h-204v8h204v-8zM210.281 182.359h-132v8h132v-8zM282.281 150.359h-204v8h204v-8z" fill="#E2E4E7"/><mask id="a" maskUnits="userSpaceOnUse" x="77" y="85" width="34" height="35"><path fill-rule="evenodd" clip-rule="evenodd" d="M77.614 102.359c0-9.2 7.467-16.667 16.667-16.667 9.2 0 16.667 7.467 16.667 16.667 0 9.2-7.467 16.667-16.667 16.667-9.2 0-16.667-7.467-16.667-16.667zm23.334 0l-10-7.5v15l10-7.5z" fill="#fff"/></mask><g mask="url(#a)"><path fill="#101517" d="M74.281 82.359h40v40h-40z"/></g><defs><filter id="filter0_d" x="30.174" y="41.957" width="299.651" height="199.651" filterUnits="userSpaceOnUse" color-interpolation-filters="sRGB"><feFlood flood-opacity="0" result="BackgroundImageFix"/><feColorMatrix in="SourceAlpha" values="0 0 0 0 0 0 0 0 0 0 0 0 0 0 0 0 0 0 127 0"/><feOffset dy="2.783"/><feGaussianBlur stdDeviation="13.913"/><feColorMatrix values="0 0 0 0 0.0980392 0 0 0 0 0.117647 0 0 0 0 0.137255 0 0 0 0.1 0"/><feBlend in2="BackgroundImageFix" result="effect1_dropShadow"/><feBlend in="SourceGraphic" in2="effect1_dropShadow" result="shape"/></filter></defs></svg>
